X:1
T:Beatus vir qui inventus est
T:Andrea Gabrieli
T:Source : Liber primus Ecclesiasticarum Cantionum---Venetia---Ang.Gardano---1576. Editor : André Vierendeels (11/09/17).
T:Beatus vir qui inventus est
T:©
T:©
T:©
T:©
T:©
C:Andrea Gabrieli
Z:©
%%score [ 1 2 3 4 ]
L:1/8
Q:1/4=120
M:2/2
K:C
V:1 treble nm="Soprano" snm="S"
V:2 treble-8 nm="Tenor 1" snm="A"
V:3 treble-8 nm="Tenor" snm="T"
V:4 bass nm="Bass" snm="B"
V:1
 D8 | G4 G4 | F4 z2 A2- | A2 G2 c4 | B4 A2 c2- | cBGA B2 A2- | A2 G4 F2 | G4 z2 D2 | D2 E2 F4 | %9
w: Be-|a- tus|vir qui|_ in- ven-|tus est si-|* * * * * ne|_ ma- cu-|la et|qui post au-|
 E8 | z8 | z4 z2 A2 | A2 B2 c4 | B2 G2 B3 B | A2 c2 c2 B2 | A2 G2 G2 A2- | A2 G2 A4 | z8 | %18
w: rum,||et|qui post au-|rum non a- bi-|it, et qui post|au- rum non a-|* bi- it,||
 z2 G4 F2 | A4 G4- | G4 z4 | z4 z2 G2- | G2 G2 A2 B2 | c6 B2 | A2 G4 F2 | G2 B4 A2 | c4 B4- | %27
w: nec spe-|ra- vit|_|in|_ pe- cu- ni-|a- et|the- sau- *|ris, nec spe-|ra- vit|
 B4 z4 | z8 | z8 | z2 G4 F2 | B4 A4 | z4 z2 G2- | G2 G2 A2 B2 | c6 B2 | A2 G4 F2 | G4 z4 | z4 G4- | %38
w: _|||nec spe-|ra- vit|in|_ pe- cu- ni-|a et-|the- sau- *|ris,|quis|
 G4 F4 | D4 G2 G2 | c4 A2 _B2 | G4 ^F4 | z2 A4 A2 | B4 A2 c2- | c2 B2 A2 ^G2 | A2 B2 G2 c2 | %46
w: _ est|hic et lau-|da- bi- mus|e- um|fe- cit|e- nim mi-|* ra- bi- li-|a in vi- ta|
 A4 B2 B2 | A2 G2 GF/E/ F2 | G8- | G4 z4 | z4 z2 B2 | c8 | A4 G4 | E2 G4 G2 | A4 G4 | z8 | %56
w: su- a, in|vi- ta su- * * *|a,|_|in|vi-|ta su-|a, fe- cit|e- nim||
 z2 G2 D2 G2 | E4 ^F2 G2- | G2 E3 F G2 | ^F2 G4 F2 | G8 |] %61
w: in vi- ta|su- a, in|_ vi- * *|ta su- *|a.|
V:2
 z8 | G8 | d4 d4 | c4 z2 e2- | e2 d2 f4 | e4 d2 c2- | c2 B2 A2 A2 | GABc B2 AG | A8 | z8 | z8 | %11
w: |Be-|a- tus|vir qui|_ in- ven-|tus est si-|* ne ma- cu-|la _ _ _ _ _ _|_|||
 z8 | z8 | z2 d2 d2 e2 | f4 e2 d2 | e3 e d2 f2 | f2 e2 d2 c2 | c2 d4 c2 | d4 z2 d2- | d2 c2 e4 | %20
w: ||et qui post|au- rum non|a- bi- it et|qui post au- rum|non ha- bi-|it, nec|_ spe- ra-|
 d3 c B4 | z4 e4- | e2 e2 c2 B2 | A2 A2 d4 | c3 B A4 | G2 d4 f2 | edef g4 | e8- | e4 z4 | %29
w: vit _ _|in|_ pe- cu- ni-|a et the-|* * sau-|ris, nec spe-|ra- * * * *|vit,|_|
 z4 z2 c2- | c2 B2 d4 | c3 d e4 | z8 | d6 d2 | e2 f2 g4 | e2 d3 c/B/ A2 | B4 z4 | e8 | d4 d4 | %39
w: nec|_ spe- ra-|vit _ _||in pe-|cu- ni- a|et the- * * sau-|ris,|quis|est hic|
 A2 A2 e4 | f2 e4 d2- | d2 c2 d4 | z2 ^f4 f2 | g4 ^f2 g2- | g2 f2 e2 d2 | e2 g2 e2 g2 | %46
w: et lau- da-|bi- mus e-|* * um|fe- cit|e- nim mi-|* ra- bi- li-|a in vi- ta|
 gf/e/ f2 g3 f | e4 d4 | z2 d4 d2 | e4 d2 G2- | G2 B2 A2 ^G2 | A2 e2 f2 g2 | f4 d4 | z2 e4 e2 | %54
w: su- * * * * *|* a,|fe- cit|e- nim mi-|* ra- bi- li-|a in vi- ta|su- a,|fe- cit|
 f4 e2 d2- | d2 d2 c2 B2 | c2 G2 B2 d2 | dc/B/ c2 d2 B2 | edcB c2 e2 | d8 | d8 |] %61
w: e- nim mi-|* ra- bi- li-|a in vi- ta|su- * * * a, in|vi- * * * * ta|su-|a.|
V:3
 z8 | z8 | z8 | z8 | z8 | z8 | D8 | G4 G4 | F4 z2 A2- | A2 G2 c4 | B4 A2 c2- | cBGA B2 A2- | %12
w: ||||||Be-|a- tus|vir qui|_ in- ven-|tus est si-|* * * * * ne|
"^#" A2 G4 F2 | G8 | z2 A2 A2 B2 | c4 B2 A2 | B3 B A4 | z2 A4 G2 | _B4 A3 G | FGAB c4 | G6 G2 | %21
w: _ ma- cu-|la|et qui post|au- rum non|a- bi- it,|nec spe-|ra- vit _|_ _ _ _ _|in pe-|
 A2 B2 c4- | c2 B2 A2 G2- | G2 F2 G4 | z4 z2 c2- | c2 B2 d4 | c4 z2 G2- | G2 G2 A2 B2 | c6 B2 | %29
w: cu- ni- a|_ et the- sau-|* * ris,|nec|_ spe- ra-|vit in|_ pe- cu- ni-|a et|
"^#" A2 G4 F2 | G4 z4 | z2 c4 c2 | B2 A2 G2 B2 | B4 A2 G2- | G2 A2 G2 B2 | c2 B2 A4 | G4 z4 | c8 | %38
w: _ the- sau-|ris,|in pe-|cu- ni- a et|the- sau- ris,|_ the- sau- *||ris,|qquis|
 _B4 A3 G | F4 E2 E2 | A4 F2 G2 | E4 D4 | z2 d4 d2 | G4 d2 e2- | e2 d2 c2 B2 | A2 G2 c2 c2 | %46
w: est hic _|_ et lau-|ba- bi- mus|e- um|fe- cit|e- nim mi-|* ra- bi- li-|a in vi- ta|
 d4 G2 d2 | c2 c2 A4 | G2 B4 B2 | c4 B4- | B4 z4 | z2 A4 c2 | d2 c4 B2 | c2 c4 c2 | F4 c2 B2- | %55
w: su- a, in|vi- ta su-|a, fe- cit|e- nim|_|in vi-|ta su- *|a, fe- cit|e- nim mi-|
 B2 A2 G2 ^F2 | G2 E2 G2 G2 | A4 D4 | z2 G4 c2- | c2 B2 A4 | G8 |] %61
w: * ra- bi- li-|a in vi- ta|su- a,|in vi-|* ta su-|a.|
V:4
 z8 | z8 | z8 | z8 | z8 | z8 | z8 | G,,8 | D,4 D,4 | C,4 z2 E,2- | E,2 D,2 F,4 | E,4 D,4 | %12
w: |||||||Be-|a- tus|vir qui|_ in- ven-|tus est|
 C,2 B,,2 A,,2 A,,2 | G,,8 | z8 | z4 z2 D,2 | D,2 E,2 F,4 | E,2 D,2 E,3 E, | D,8 | z4 z2 C,2- | %20
w: si- ne ma- cu-|la||et|qui post au-|rum non a- bi-|it|nec|
 C,2 B,,2 E,4 | D,3 C,/B,,/ A,,B,,C,D, | E,4 z4 | z8 | z8 | z2 G,4 F,2 | A,4 G,2 E,2- | %27
w: _ spe- ra-|vit, _ _ _ _ _ _|_|||nec spe-|ra- vit in|
 E,2 E,2 C,2 B,,2 | A,,2 A,,2 D,4 | C,3 B,, A,,4 | G,,4 z4 | z2 C,4 C,2 | E,2 ^F,2 G,4- | %33
w: _ pe- cu- ni-|a et the-|sau- * *|ris,|in pe-|cu- ni- a|
 G,2 G,2 F,D, G,2 | C,2 F,2 E,3 D, | C,2 G,,2 D,4 | G,,4 z4 | z8 | z4 D,4- | D,4 C,4 | A,,4 z4 | %41
w: _ et the- * sau-|ris, the- sau- *||ris,||quis|_ est|hic|
 z8 | z8 |"^#""^#" z8 | z8 | z8 | z4 z2 G,,2 | C,2 C,2 D,4 | G,,2 G,4 G,2 | C,4 G,2 E,2- | %50
w: |||||in|vi- ta su-|a, fe- cit|e- nim mi-|
 E,2 D,2 C,2 B,,2 | A,,4 z2 E,2 | F,2 F,2 G,4 | C,8 | z4 z2 G,2- | G,2 F,2 E,2 D,2 | C,4 z4 | %57
w: * ra- bi- li-|a, in|vi- ta su-|a|mi-|* ra bi- li-|a|
 z4 z2 G,,2 | C,4 C,4 | D,8 | G,,8 |] %61
w: in|vi- ta|su-|a.|

